src/48/apps/preferences-bluetooth.svg

<?xml version="1.0" encoding="UTF-8" standalone="no"?>
<svg
   xmlns:dc="http://purl.org/dc/elements/1.1/"
   xmlns:cc="http://creativecommons.org/ns#"
   xmlns:rdf="http://www.w3.org/1999/02/22-rdf-syntax-ns#"
   xmlns:svg="http://www.w3.org/2000/svg"
   xmlns="http://www.w3.org/2000/svg"
   xmlns:sodipodi="http://sodipodi.sourceforge.net/DTD/sodipodi-0.dtd"
   xmlns:inkscape="http://www.inkscape.org/namespaces/inkscape"
   id="svg4224"
   height="48"
   width="48"
   version="1.1"
   sodipodi:docname="preferences-bluetooth.svg"
   inkscape:version="0.92.4 (5da689c313, 2019-01-14)">
  <sodipodi:namedview
     pagecolor="#ffffff"
     bordercolor="#666666"
     borderopacity="1"
     objecttolerance="10"
     gridtolerance="10"
     guidetolerance="10"
     inkscape:pageopacity="0"
     inkscape:pageshadow="2"
     inkscape:window-width="1366"
     inkscape:window-height="697"
     id="namedview27"
     showgrid="false"
     inkscape:zoom="19.666667"
     inkscape:cx="25.651636"
     inkscape:cy="4.1526634"
     inkscape:window-x="0"
     inkscape:window-y="0"
     inkscape:window-maximized="1"
     inkscape:current-layer="svg4224" />
  <defs
     id="defs4226" />
  <metadata
     id="metadata4229">
    <rdf:RDF>
      <cc:Work
         rdf:about="">
        <dc:format>image/svg+xml</dc:format>
        <dc:type
           rdf:resource="http://purl.org/dc/dcmitype/StillImage" />
        <dc:title />
      </cc:Work>
    </rdf:RDF>
  </metadata>
  <path
     id="path855-0"
     d="M 18.538331,46.05391 C 13.241965,44.57564 10.028647,40.896158 8.4198512,34.467516 7.5458112,30.974907 7.2050842,21.615869 7.7935702,17.264871 9.1209732,7.4506426 13.170306,2.7070092 21.072116,1.7095816 c 2.207998,-0.2787109 3.678123,-0.2793327 5.871378,-0.0025 7.963071,1.0051608 11.974684,5.804381 13.325045,15.9411764 0.467024,3.505821 0.185492,13.031861 -0.470742,15.928256 -1.466056,6.470677 -4.23765,10.221798 -8.887929,12.029075 -2.448206,0.951467 -9.635659,1.211919 -12.371537,0.448304 z"
     style="fill:#51a5f4;fill-opacity:1;stroke-width:1" />
  <path
     id="path4167"
     d="M 23 10 C 22.446 10 22.0063 10.446036 22 11 L 22 20.75 L 18.564453 17.75 C 17.938693 17.203101 17.046802 17.313712 16.5 17.939453 C 15.953205 18.565213 15.999236 19.51568 16.625 20.0625 L 21.125 24 L 16.625 27.9375 C 15.999235 28.484303 15.953202 29.434791 16.5 30.060547 C 17.0468 30.686302 17.938693 30.796803 18.564453 30.25 L 22 27.25 L 22 37 C 22 37.554001 22.446 38 23 38 C 23.56484 38 23.875 37.962892 24.3125 37.626953 L 31.375 31.3125 C 31.59962 31.11268 31.7379 30.831061 31.8125 30.5625 C 31.8409 30.459865 31.867347 30.355796 31.873047 30.25 C 31.881047 30.166 31.879047 30.084 31.873047 30 C 31.861077 29.892775 31.8477 29.790899 31.8125 29.6875 C 31.7355 29.419581 31.60138 29.135302 31.375 28.9375 L 25.748047 24 L 31.375 19.0625 C 31.60138 18.864686 31.73556 18.580402 31.8125 18.3125 C 31.8477 18.209009 31.861377 18.107209 31.873047 18 C 31.879047 17.916016 31.881047 17.83398 31.873047 17.75 C 31.866987 17.644176 31.84091 17.540124 31.8125 17.4375 C 31.737896 17.168928 31.59962 16.887308 31.375 16.6875 L 24.3125 10.373047 C 23.91392 10.05109 23.4576 10 23 10 z M 24 14 L 28.5 18.099609 L 24 22 L 24 14 z M 24 26 L 28.5 30.099609 L 24 34 L 24 26 z "
     style="color:#000000;clip-rule:nonzero;display:inline;overflow:visible;visibility:visible;opacity:1;isolation:auto;mix-blend-mode:normal;color-interpolation:sRGB;color-interpolation-filters:linearRGB;solid-color:#000000;solid-opacity:1;fill:#ffffff;fill-opacity:1;fill-rule:nonzero;stroke:none;stroke-width:1;stroke-linecap:butt;stroke-linejoin:miter;stroke-miterlimit:4;stroke-dasharray:none;stroke-dashoffset:0;stroke-opacity:1;marker:none;color-rendering:auto;image-rendering:auto;shape-rendering:auto;text-rendering:auto;enable-background:accumulate;filter-blend-mode:normal;filter-gaussianBlur-deviation:0" />
  <path
     id="path855-3-63"
     d="M 18.537056,46.05391 C 13.24069,44.57564 10.027372,40.896158 8.418576,34.467516 7.544536,30.974907 7.203809,21.615869 7.792295,17.264871 9.119698,7.4506428 13.169031,2.7070094 21.070841,1.7095818 c 2.207998,-0.2787109 3.678123,-0.2793327 5.871378,-0.0025 7.963071,1.0051608 11.974684,5.804381 13.325045,15.9411762 0.467024,3.505821 0.185492,13.031861 -0.470742,15.928256 -1.466056,6.470677 -4.23765,10.221798 -8.887929,12.029075 -2.448206,0.951467 -9.635659,1.211919 -12.371537,0.448304 z"
     style="opacity:0.35;fill:none;stroke:#002e99;stroke-width:1" />
</svg>

<svg xmlns="http://www.w3.org/2000/svg" height="48" width="48"><path d="M18.538 46.054c-5.296-1.478-8.51-5.158-10.118-11.586-.874-3.493-1.215-12.852-.626-17.203C9.12 7.45 13.17 2.707 21.072 1.71c2.208-.28 3.678-.28 5.871-.003 7.964 1.005 11.975 5.804 13.326 15.941.467 3.506.185 13.032-.471 15.929-1.466 6.47-4.238 10.221-8.888 12.029-2.448.951-9.636 1.212-12.372.448z" fill="#51a5f4"/><path d="M23 10c-.554 0-.994.446-1 1v9.75l-3.436-3c-.625-.547-1.517-.436-2.064.19-.547.625-.5 1.576.125 2.122l4.5 3.938-4.5 3.938c-.626.546-.672 1.497-.125 2.123.547.625 1.439.736 2.064.189l3.436-3V37c0 .554.446 1 1 1 .565 0 .875-.037 1.313-.373l7.062-6.315c.225-.2.363-.48.438-.75a1.48 1.48 0 0 0 0-.875c-.078-.267-.212-.552-.438-.75L25.748 24l5.627-4.938c.226-.197.36-.482.438-.75a1.423 1.423 0 0 0 .06-.562 1.502 1.502 0 0 0-.06-.313c-.075-.268-.213-.55-.438-.75l-7.063-6.314C23.915 10.051 23.459 10 23 10zm1 4l4.5 4.1L24 22v-8zm0 12l4.5 4.1L24 34v-8z" style="isolation:auto;mix-blend-mode:normal;solid-color:#000;solid-opacity:1;marker:none;filter-blend-mode:normal;filter-gaussianBlur-deviation:0" color="#000" overflow="visible" fill="#fff"/><path d="M18.537 46.054c-5.296-1.478-8.51-5.158-10.118-11.586-.874-3.493-1.215-12.852-.627-17.203C9.12 7.45 13.17 2.707 21.071 1.71c2.208-.28 3.678-.28 5.871-.003 7.963 1.005 11.975 5.804 13.325 15.941.467 3.506.186 13.032-.47 15.929-1.467 6.47-4.238 10.221-8.888 12.029-2.449.951-9.636 1.212-12.372.448z" opacity=".35" fill="none" stroke="#002e99"/></svg>
